dist/svgs/crypto-icons/icons/sngls.svg

<?xml version="1.0" encoding="UTF-8" standalone="yes"?>
<svg xmlns="http://www.w3.org/2000/svg" xmlns:xlink="http://www.w3.org/1999/xlink" width="509.3333333333333px" height="292px" viewBox="0 0 382 219" version="1.1">
  <g id="surface1">
    <path style=" stroke:none;fill-rule:evenodd;fill:rgb(0%,0%,0%);fill-opacity:1;" d="M 211.292969 33.507812 L 203.734375 21.140625 L 191 0 L 183.441406 12.367188 L 170.707031 33.507812 C 146.832031 35.636719 124.546875 40.953125 103.855469 49.464844 C 82.898438 57.707031 64.792969 66.417969 49.539062 75.59375 C 34.285156 84.769531 22.152344 92.945312 13.132812 100.125 L 0 111.296875 L 13.527344 122.464844 L 50.734375 147.59375 C 75.539062 164.351562 94.039062 173.257812 106.242188 174.324219 C 127.730469 182.566406 150.675781 187.753906 175.082031 189.878906 L 191 219 L 206.917969 189.878906 C 231.324219 187.753906 254.269531 182.566406 275.753906 174.324219 C 296.980469 165.8125 315.480469 156.902344 331.265625 147.59375 C 347.050781 138.289062 359.453125 129.910156 368.472656 122.464844 L 382 111.296875 L 368.871094 100.125 C 360.117188 92.945312 348.042969 84.769531 332.65625 75.59375 C 317.273438 66.417969 299.101562 57.707031 278.144531 49.464844 C 257.453125 40.953125 235.167969 35.636719 211.292969 33.507812 Z M 217.660156 170.730469 L 253.871094 104.914062 L 244.320312 88.160156 L 199.753906 172.328125 L 183.441406 172.328125 L 138.871094 88.160156 L 129.324219 104.914062 L 165.535156 170.730469 C 146.699219 168.074219 128.394531 163.550781 110.621094 157.167969 C 92.582031 150.519531 76.53125 143.804688 62.472656 137.023438 C 48.414062 130.242188 37.140625 124.191406 28.648438 118.875 L 15.917969 111.296875 L 28.253906 103.714844 C 36.210938 98.664062 46.886719 92.878906 60.285156 86.363281 C 73.679688 79.847656 89 73.265625 106.242188 66.617188 C 123.488281 60.234375 141.128906 55.582031 159.167969 52.65625 L 147.628906 71.804688 L 156.777344 88.957031 L 180.652344 49.863281 L 199.753906 49.863281 L 224.027344 88.957031 L 233.179688 71.003906 L 222.832031 52.65625 C 240.875 55.316406 258.511719 59.835938 275.753906 66.21875 C 293 72.601562 308.316406 79.050781 321.714844 85.566406 C 335.113281 92.082031 345.789062 97.863281 353.75 102.917969 C 361.972656 108.238281 366.082031 111.027344 366.082031 111.296875 C 366.082031 111.5625 361.839844 114.351562 353.351562 119.671875 C 344.863281 124.992188 333.652344 130.972656 319.726562 137.621094 C 305.800781 144.269531 289.949219 150.785156 272.175781 157.167969 C 254.402344 163.550781 236.230469 168.074219 217.660156 170.730469 Z M 217.660156 170.730469 "/>
  </g>
</svg>

<svg xmlns="http://www.w3.org/2000/svg" viewBox="0 0 382 219"><path fill-rule="evenodd" d="M211.293 33.508l-7.559-12.367L191 0l-7.559 12.367-12.734 21.14c-23.875 2.13-46.16 7.446-66.852 15.958-20.957 8.242-39.062 16.953-54.316 26.129-15.254 9.176-27.387 17.351-36.406 24.531L0 111.297l13.527 11.168 37.207 25.129c24.805 16.758 43.305 25.664 55.508 26.73 21.488 8.242 44.434 13.43 68.84 15.555L191 219l15.918-29.121c24.406-2.125 47.352-7.313 68.836-15.555 21.226-8.512 39.726-17.422 55.512-26.73 15.785-9.305 28.187-17.684 37.207-25.13L382 111.298l-13.129-11.172c-8.754-7.18-20.828-15.355-36.215-24.531-15.383-9.176-33.554-17.887-54.511-26.13-20.692-8.51-42.977-13.827-66.852-15.956zm6.367 137.222l36.211-65.816-9.55-16.754-44.567 84.168H183.44L138.87 88.16l-9.547 16.754 36.211 65.816a276.12 276.12 0 01-54.914-13.562c-18.039-6.648-34.09-13.363-48.148-20.145-14.059-6.78-25.332-12.832-33.825-18.148l-12.73-7.578 12.336-7.582c7.957-5.05 18.633-10.836 32.031-17.352C73.68 79.848 89 73.266 106.242 66.617a282.384 282.384 0 0152.926-13.96l-11.54 19.148 9.15 17.152 23.874-39.094h19.102l24.273 39.094 9.153-17.953-10.348-18.348c18.043 2.66 35.68 7.18 52.922 13.563 17.246 6.383 32.562 12.832 45.96 19.347 13.4 6.516 24.075 12.297 32.036 17.352 8.223 5.32 12.332 8.11 12.332 8.379 0 .266-4.242 3.055-12.73 8.375-8.489 5.32-19.7 11.3-33.625 17.95-13.926 6.648-29.778 13.163-47.551 19.546-17.774 6.383-35.946 10.906-54.516 13.562zm0 0"/></svg>
